lib/healthicons/icons/solid/vehicles/4x4.svg

<svg fill="none" height="48" viewBox="0 0 48 48" width="48" xmlns="http://www.w3.org/2000/svg"><g fill="#333"><path clip-rule="evenodd" d="m16.7358 8.57878c.4288-1.6004 2.0738-2.55015 3.6742-2.12132l16.4207 4.39994c1.6004.4288 2.5502 2.0738 2.1213 3.6742l-.1294.483 2.2132.5931c.5335.1429.8501.6912.7072 1.2247l-.9059 3.3807c-.143.5335-.6913.8501-1.2248.7072l-2.2132-.5931-.4165 1.5544c.0405.0728.0766.1486.108.2269l.8583 2.1404c.161.4015.1875.8443.0756 1.262l-1.2298 4.5896c-.2859 1.0669-1.3826 1.7001-2.4495 1.4142l-5.7431-1.5389 1.4486-5.4061c.1429-.5334-.1737-1.0818-.7071-1.2247l-8.6934-2.3294c-.5334-.1429-1.0818.1737-1.2247.7071l-1.4486 5.4061-6.235-1.6706c-1.0669-.2859-1.7001-1.3826-1.4142-2.4495l1.1976-4.4696c.1315-.4906.4446-.9128.876-1.1809l2.292-1.4249c.0281-.0174.0565-.0341.0852-.0501l.4044-1.5089-2.3136-.6199c-.5334-.143-.85-.6913-.7071-1.2248l.9059-3.38071c.1429-.53346.6913-.85004 1.2248-.7071l2.3135.6199zm3.1566-.18947c-.5335-.14294-1.0819.17364-1.2248.70711l-1.5529 5.79558 18.3526 4.9175 1.5529-5.7955c.1429-.5335-.1736-1.0818-.7071-1.2248zm-4.6241 15.32539c.8002.2144 1.6227-.2605 1.8371-1.0607s-.2605-1.6227-1.0607-1.8371-1.6227.2605-1.8371 1.0607.2605 1.6227 1.0607 1.8371zm19.2238 3.598c-.2144.8002-1.0369 1.2751-1.8371 1.0607s-1.2751-1.0369-1.0607-1.8371 1.0369-1.2751 1.8371-1.0607 1.2751 1.0369 1.0607 1.8371z" fill-rule="evenodd"/><path d="m15 38.9998c0-1.0608-.4741-2.0782-1.318-2.8284-.8439-.7501-1.9885-1.1716-3.182-1.1716-1.19347 0-2.33807.4215-3.18198 1.1716-.84391.7502-1.31802 1.7676-1.31802 2.8284v2c0 .5523.44772 1 1 1h27.5c.5523 0 1-.4477 1-1 0-.5522-.4477-1-1-1h-9.5c0-.5304-.2107-1.0391-.5858-1.4142-.3751-.375-.8838-.5858-1.4142-.5858s-1.0391.2108-1.4142.5858c-.3751.3751-.5858.8838-.5858 1.4142 0-.7956-.3161-1.5587-.8787-2.1213s-1.3257-.8787-2.1213-.8787-1.5587.3161-2.1213.8787-.8787 1.3257-.8787 2.1213z"/><path d="m17.6447 28.9454-5.7955-1.553-.7599 2.8357c-.1429.5335.1737 1.0818.7072 1.2248l3.8637 1.0352c.5334.143 1.0818-.1736 1.2247-.7071z"/><path d="m28.4454 31.886 5.7955 1.5529-.7481 2.7922c-.143.5334-.6913.85-1.2248.7071l-3.8637-1.0353c-.5334-.1429-.85-.6913-.7071-1.2247z"/><path d="m20.0632 27.07 1.0353-3.8637 2.5161.6742-1.1272 3.8391z"/><path d="m24.4198 28.2373 1.1272-3.839 2.313.6197-1.0353 3.8637z"/></g></svg>

<svg width="48" height="48" viewBox="0 0 48 48" fill="none" xmlns="http://www.w3.org/2000/svg">
<path fill-rule="evenodd" clip-rule="evenodd" d="M16.7358 8.57878C17.1646 6.97838 18.8096 6.02863 20.41 6.45746L36.8307 10.8574C38.4311 11.2862 39.3809 12.9312 38.952 14.5316L38.8226 15.0146L41.0358 15.6077C41.5693 15.7506 41.8859 16.2989 41.743 16.8324L40.8371 20.2131C40.6941 20.7466 40.1458 21.0632 39.6123 20.9203L37.3991 20.3272L36.9826 21.8816C37.0231 21.9544 37.0592 22.0302 37.0906 22.1085L37.9489 24.2489C38.1099 24.6504 38.1364 25.0932 38.0245 25.5109L36.7947 30.1005C36.5088 31.1674 35.4121 31.8006 34.3452 31.5147L28.6021 29.9758L30.0507 24.5697C30.1936 24.0363 29.877 23.4879 29.3436 23.345L20.6502 21.0156C20.1168 20.8727 19.5684 21.1893 19.4255 21.7227L17.9769 27.1288L11.7419 25.4582C10.675 25.1723 10.0418 24.0756 10.3277 23.0087L11.5253 18.5391C11.6568 18.0485 11.9699 17.6263 12.4013 17.3582L14.6933 15.9333C14.7214 15.9159 14.7498 15.8992 14.7785 15.8832L15.1829 14.3743L12.8693 13.7544C12.3359 13.6114 12.0193 13.0631 12.1622 12.5296L13.0681 9.14889C13.211 8.61543 13.7594 8.29885 14.2929 8.44179L16.6064 9.06169L16.7358 8.57878ZM19.8924 8.38931C19.3589 8.24637 18.8105 8.56295 18.6676 9.09642L17.1147 14.892L35.4673 19.8095L37.0202 14.014C37.1631 13.4805 36.8466 12.9322 36.3131 12.7892L19.8924 8.38931ZM15.2683 23.7147C16.0685 23.9291 16.891 23.4542 17.1054 22.654C17.3198 21.8538 16.8449 21.0313 16.0447 20.8169C15.2445 20.6025 14.422 21.0774 14.2076 21.8776C13.9932 22.6778 14.4681 23.5003 15.2683 23.7147ZM34.4921 27.3127C34.2777 28.1129 33.4552 28.5878 32.655 28.3734C31.8548 28.159 31.3799 27.3365 31.5943 26.5363C31.8087 25.7361 32.6312 25.2612 33.4314 25.4756C34.2316 25.69 34.7065 26.5125 34.4921 27.3127Z" fill="#333333"/>
<path d="M15 38.9998C15 37.939 14.5259 36.9216 13.682 36.1714C12.8381 35.4213 11.6935 34.9998 10.5 34.9998C9.30653 34.9998 8.16193 35.4213 7.31802 36.1714C6.47411 36.9216 6 37.939 6 38.9998V40.9998C6 41.5521 6.44772 41.9998 7 41.9998H34.5C35.0523 41.9998 35.5 41.5521 35.5 40.9998C35.5 40.4476 35.0523 39.9998 34.5 39.9998H25C25 39.4694 24.7893 38.9607 24.4142 38.5856C24.0391 38.2106 23.5304 37.9998 23 37.9998C22.4696 37.9998 21.9609 38.2106 21.5858 38.5856C21.2107 38.9607 21 39.4694 21 39.9998C21 39.2042 20.6839 38.4411 20.1213 37.8785C19.5587 37.3159 18.7956 36.9998 18 36.9998C17.2044 36.9998 16.4413 37.3159 15.8787 37.8785C15.3161 38.4411 15 39.2042 15 39.9998V38.9998Z" fill="#333333"/>
<path d="M17.6447 28.9454L11.8492 27.3924L11.0893 30.2281C10.9464 30.7616 11.263 31.3099 11.7965 31.4529L15.6602 32.4881C16.1936 32.6311 16.742 32.3145 16.8849 31.781L17.6447 28.9454Z" fill="#333333"/>
<path d="M28.4454 31.886L34.2409 33.4389L33.4928 36.2311C33.3498 36.7645 32.8015 37.0811 32.268 36.9382L28.4043 35.9029C27.8709 35.76 27.5543 35.2116 27.6972 34.6782L28.4454 31.886Z" fill="#333333"/>
<path d="M20.0632 27.07L21.0985 23.2063L23.6146 23.8805L22.4874 27.7196L20.0632 27.07Z" fill="#333333"/>
<path d="M24.4198 28.2373L25.547 24.3983L27.86 25.018L26.8247 28.8817L24.4198 28.2373Z" fill="#333333"/>
</svg>
